svg/u1f9c6.svg

<svg viewBox="0 0 128 128" xmlns="http://www.w3.org/2000/svg">
  <path d="M64.48,114.29c40.2,0,61.13-19.34,60.11-44.65C123.63,45.67,90,36.78,65.64,36.78 S6.9,43.41,4.18,70.41C1.86,93.42,21.57,114.29,64.48,114.29z" fill="#D4D4D4"/>
  <path d="M63.52,108.69c36.72,0.19,58.55-19.6,58.95-39.04C123.05,42,92.12,34.85,63.32,34.08 C35.61,33.33,7.39,45.7,6.11,67.9C4.95,88,24.85,108.48,63.52,108.69z" fill="#F6F6F7"/>
  <path d="M9.23,68.2C9.44,86.52,32,104.33,65.39,104.33c33.73,0,56.53-21.24,55.82-40.75 c-0.68-18.83-17.29-22.26-17.29-22.26S89.91,24.2,58.54,26.77c-35.61,2.91-38.7,20.55-38.7,20.55S9.06,53.65,9.23,68.2z" fill="#F4B54C"/>
  <path d="M16.6,62.81c-1.36,1.13-2.73,23.64,29.35,32.08c34.06,8.96,66.17-7.8,67.3-28.24 S81.2,47.37,81.2,47.37s-0.28,8.88-0.14,12.41c0.14,3.53-12.5,7.33-22.84,7.47c-10.29,0.14-16.07-2.12-16.07-2.12 s9.21,14.53,25.8,14.1C84.3,78.82,94.46,67.4,94.46,67.4s-0.95,19.45-27.74,19.45C28.79,86.85,18.29,61.4,16.6,62.81z" fill="#FFE0B1"/>
  <path d="M54.08,28.77l-9.16,3.01c0,0-1.79,1.23-1.79,3.8c0,2.57,1.23,4.47,1.23,4.47l6.03,43.44 c0,0,7.48,0.11,12.62-5.58c5.14-5.69,6.03-9.94,6.03-9.94l2.19,1.12l-0.79,3.51c0,0,1.11,6.09,5.08,8.88 c3.22,2.27,5.95,2.01,5.95,2.01s1.65,2.59,7.15,2.95c5.24,0.34,8.35-1.94,8.35-1.94s3.27,0.56,5.95-1.79 c2.68-2.34,2.32-4.91,2.32-4.91s2.88-0.85,3.89-3.64c1-2.79,0.52-5.91,0.52-5.91s2.3-3.45,0.4-10.43c-1.75-6.46-7.37-8.37-7.37-8.37 L84.78,43.5c0,0,1.34-2.12,1.79-3.8c0.45-1.67,0-4.13,0-4.13s1.04-1.82,0.66-3.81c-0.53-2.76-3.67-4.23-3.67-4.23L54.08,28.77z" fill="#66361F"/>
  <path d="M51.62,20.73c0,0-2.97,0.03-5.25,3.8c-2.44,4.03-1.45,7.26-1.45,7.26s8.82-0.89,14.18,2.01 c5.36,2.9,10.27,9.71,10.27,9.71s4.44,0.08,6.03-1.23c2.57-2.12,3.57-5.36,4.8-5.92s3.91-2.12,4.02-3.68 c0.11-1.56,0.67-5.41-0.67-8.37c-1.56-3.46-4.35-6.92-9.04-8.26c-3.5-1-5.81,0-5.81,0s-2.46-2.34-6.92-1.9 c-3.91,0.39-5.69,2.79-5.69,2.79s-1.67-0.56-3.35,0.89C51.36,19.01,51.62,20.73,51.62,20.73z" fill="#974F2F"/>
  <path d="M47.72,40.04c0,0-3.39-3.19-10.73-1.14c-7.09,1.98-8.22,6.23-8.22,6.23s-3.9,0.66-5.85,5.98 c-2.09,5.71-1.62,9.07-1.34,10.5c0.56,2.79,1.92,4.69,1.92,4.69s-0.44,1.69,0.48,5.03c1.12,4.07,3.59,6.15,6.47,7.67 c1.59,0.84,4.31,1.92,4.31,1.92s3.7,2.44,6.58,3.48c4.94,1.77,11.28-0.56,12.84-2.46c1.56-1.9,2.09-3.3,2.09-3.3s4.08-0.7,6.28-5.08 c2.67-5.31,1.41-8.47,1.74-9.26c0.33-0.78,1.41-5.04,0.95-10.01C64.7,48.25,59,42.61,54.01,40.89 C50.67,39.74,47.72,40.04,47.72,40.04z" fill="#974F2F"/>
  <path d="M82.26,78.85c0,0,7.05,1.5,11.65-0.47c4.93-2.11,6.92-4.75,8.65-8.83c1.41-3.32,3.84-5.05,4.02-9.19 c0.44-10.24-3.93-10.94-3.93-10.94s-2.01-3.77-5.33-5.18c-3.06-1.3-6.33-0.3-6.33-0.3s-1.71-2.11-5.33-1.31 c-2.79,0.62-3.52,2.71-3.52,2.71s-4.07-1.26-8.75,4.42c-3.72,4.52-2.41,8.04-2.41,8.04s-2.92,1.62-3.2,6.3 c-0.28,4.75,2.55,7.02,2.55,7.02s-0.36,3.57,3.46,6.09C77.62,79.73,82.26,78.85,82.26,78.85z" fill="#974F2F"/>
  <path d="M29.87,47.89c0,0-3.9-0.16-5.51,7.13c-1.71,7.68,1.22,10.7,1.22,10.7s-0.44,3.95,2.42,7.6 s6.41,3.92,6.41,3.92s2.69,4.36,9.76,3.79c7.81-0.63,9.52-5.17,9.52-5.17s3.29-2.25,5.55-6.39c2.27-4.14,2.82-11.28,0.76-15.01 c-1.85-3.33-3.59-4.55-3.59-4.55s-0.16-3.3-4.23-5.83c-3.03-1.88-5.48-0.89-5.48-0.89s-3.65-3.65-9.76-1.78 C30.87,43.27,29.87,47.89,29.87,47.89z" fill="#F8910A"/>
  <path d="M31.17,49.59c0,0-3.35,0.01-4.75,5.83c-1.68,7,1.39,9.98,1.39,9.98s-0.38,3.71,1.59,6.27 c2.82,3.67,5.45,3.39,5.45,3.39s2.76,4.3,8.96,3.67c6.44-0.65,7.87-4.63,7.87-4.63s7.17-3.54,7.27-11.82s-4.47-10.7-4.47-10.7 s-0.71-3.95-3.37-5.53c-2.66-1.58-4.88-0.24-4.88-0.24s-3.35-3.7-8.27-2.62C32.91,44.32,31.17,49.59,31.17,49.59z" fill="#9ACD66"/>
  <path d="M21.6,88.19c0,0.86,5.12,2.46,5.96,2.46s4.86-3.31,4.86-4.6c0-1.3-5.57-1.94-6.68-1.94 C24.65,84.11,21.6,87.16,21.6,88.19z" fill="#699F1A"/>
  <path d="M70.73,83.14c-0.92,0.23-1.98,6.68-2.14,7.45c-0.32,1.62,0.71,2.53,1.94,1.62 c1.38-1.02,6.81-5.25,6.74-6.35C77.22,84.76,72.55,82.68,70.73,83.14z" fill="#307B37"/>
  <path d="M79.42,86.12c-0.65,0-2.98,4.47-2.85,5.45c0.13,0.97,2.92,4.28,3.63,4.21 c0.71-0.06,2.85-6.81,2.72-7.45C82.79,87.67,80.26,86.12,79.42,86.12z" fill="#6F9923"/>
  <path d="M93.23,29.21c-0.71-0.39-4.41,2.85-4.54,3.76c-0.13,0.91,0.45,5.06,1.36,5.38 c0.91,0.32,4.99-3.37,5.12-4.28C95.3,33.16,94.14,29.7,93.23,29.21z" fill="#6F9923"/>
  <path d="M39.74,59.63c0,0,0.32-3.44,2.59-4.54c2.27-1.1,4.54-0.32,4.54-0.32s-0.84,3.11-2.72,4.15 C42.27,59.96,39.74,59.63,39.74,59.63z" fill="#6F9923"/>
  <path d="M40.2,63.98c-1.51,1.27-1.56,4.73-1.56,4.73s2.14,0.32,4.08-1.04c1.94-1.36,2.46-4.6,2.46-4.6 S42.21,62.29,40.2,63.98z" fill="#6F9923"/>
  <path d="M36.89,50.62c0,0,1.04-2.79,3.69-2.98c2.66-0.19,4.08,2.4,4.08,2.4s-1.62,1.88-3.69,1.88 C38.45,51.92,36.89,50.62,36.89,50.62z" fill="#6F9923"/>
  <path d="M30.67,58.92c0,0-1.88,0.97-1.82,2.98c0.06,2.01,2.59,4.41,2.59,4.41s0.91-2.92,0.78-4.54 C32.09,60.15,30.67,58.92,30.67,58.92z" fill="#6F9923"/>
  <path d="M35.53,65.08c0,0,1.43-2.67,1.69-6.03c0.26-3.37-0.97-5.64-0.97-5.64s-3.49,0.78-3.31,5.32 C33.07,61.97,35.53,65.08,35.53,65.08z" fill="#307B37"/>
  <path d="M49.01,49.58c-0.32,0.13-0.71,3.75,0.06,5.25c0.97,1.88,3.69,3.05,3.69,3.05s0.71-3.23-0.26-5.12 C51.22,50.23,49.01,49.58,49.01,49.58z" fill="#307B37"/>
  <path d="M51.86,58.85c0,0-1.3,1.3-1.36,3.11c-0.06,2.07,2.27,4.99,2.27,4.99s1.52-2.47,1.62-3.95 C54.59,60.09,51.86,58.85,51.86,58.85z" fill="#307B37"/>
  <path d="M36.57,73.67c0,0.5,3.12,3.29,7.84,1.85c4.02-1.23,3.57-6.16,3.57-6.16s-3.31-0.91-6.87,0.76 C37.64,71.74,36.57,73.67,36.57,73.67z" fill="#307B37"/>
  <path d="M74.48,59.51L74.48,59.51c-0.65,0-1.17-0.52-1.17-1.17c0,0,0-0.61,0.07-1.42 c0.06-0.75,0.04-1.2,0.13-1.69c0.08-0.49,0.51-0.99,1.33-0.95c0.71,0.04,1.04,0.58,1,1.1c-0.04,0.52-0.06,0.96-0.13,1.72 c-0.06,0.69-0.06,1.21-0.06,1.23C75.65,58.99,75.13,59.51,74.48,59.51z" fill="#F8910A"/>
  <path d="M77.78,54.01c-0.25,0-0.5-0.08-0.72-0.24c-0.53-0.4-0.64-1.14-0.25-1.67 c0.05-0.07,0.51-0.67,1.27-1.2c0.67-0.47,1.43-0.79,1.51-0.83c0.61-0.25,1.31,0.03,1.57,0.64c0.26,0.61-0.03,1.31-0.64,1.57 c-0.01,0-0.6,0.25-1.06,0.58c-0.44,0.31-0.72,0.67-0.72,0.67C78.5,53.84,78.14,54.01,77.78,54.01z" fill="#F8910A"/>
  <path d="M85.39,49.36c-0.35,0-0.69-0.16-0.9-0.46c-0.35-0.49-0.24-1.18,0.25-1.54 c0.08-0.06,0.81-0.57,1.91-0.83c1.04-0.25,1.7-0.2,1.82-0.19c0.61,0.06,1.05,0.6,0.99,1.21c-0.06,0.61-0.61,1.06-1.21,0.99l0,0 c-0.01,0-0.42-0.02-1.09,0.14c-0.67,0.16-1.12,0.47-1.12,0.47C85.83,49.3,85.61,49.36,85.39,49.36z" fill="#F8910A"/>
  <path d="M85.93,54.58c-0.36,0-0.72-0.16-0.95-0.46c-0.39-0.51-0.33-1.23,0.17-1.64 c0.12-0.1,0.52-0.39,1.49-0.78c0.97-0.39,1.74-0.52,1.83-0.54c0.65-0.11,1.27,0.33,1.38,0.99c0.11,0.65-0.33,1.27-0.99,1.38 c0,0-0.6,0.11-1.33,0.4c-0.65,0.26-0.88,0.42-0.89,0.42C86.43,54.5,86.18,54.58,85.93,54.58z" fill="#F8910A"/>
  <path d="M99.03,53.49c-0.43,0-0.84-0.23-1.06-0.63l0,0c0,0-0.15-0.26-0.49-0.6 c-0.25-0.25-0.53-0.32-0.53-0.32c-0.63-0.16-1.03-0.8-0.89-1.43c0.14-0.63,0.75-1.04,1.39-0.91c0.16,0.03,0.98,0.23,1.73,0.97 c0.59,0.59,0.86,1.07,0.91,1.16c0.31,0.58,0.09,1.31-0.49,1.62C99.42,53.44,99.22,53.49,99.03,53.49z" fill="#F8910A"/>
  <path d="M72.81,67.29c-0.12,0-0.24-0.02-0.35-0.06c-0.58-0.2-0.9-0.83-0.7-1.41 c0.01-0.03,0.25-0.75,0.62-1.43c0.34-0.63,0.74-1.26,0.74-1.26c0.33-0.52,1.02-0.67,1.54-0.34c0.52,0.33,0.67,1.02,0.34,1.54 c-0.01,0.01-0.36,0.57-0.67,1.13c-0.27,0.5-0.46,1.06-0.46,1.07C73.71,67,73.28,67.29,72.81,67.29z" fill="#F8910A"/>
  <path d="M74.97,74.09c-0.5,0-0.97-0.32-1.13-0.82c-0.02-0.07-0.23-0.7-0.29-1.64 c-0.07-0.95,0.06-1.65,0.08-1.73c0.13-0.65,0.77-1.07,1.41-0.94c0.65,0.13,1.07,0.76,0.94,1.41c0,0.01-0.08,0.47-0.04,1.09 c0.04,0.64,0.18,1.06,0.18,1.06c0.2,0.63-0.14,1.3-0.77,1.51C75.22,74.07,75.09,74.09,74.97,74.09z" fill="#F8910A"/>
  <path d="M70.11,24.25c-0.22,0-0.45-0.06-0.65-0.2c-0.54-0.36-0.69-1.09-0.33-1.64c0.16-0.25,1-1.09,1.9-1.52 c0.84-0.4,1.81-0.57,1.92-0.59c0.64-0.11,1.25,0.33,1.35,0.98c0.1,0.64-0.33,1.25-0.98,1.35c-0.2,0.03-0.82,0.17-1.27,0.38 c-0.42,0.2-0.89,0.64-1.01,0.77C70.82,24.09,70.47,24.25,70.11,24.25z" fill="#F8910A"/>
  <path d="M78.96,29.01c-0.49-0.06-0.91-0.44-1.01-0.95c0,0,0,0,0,0c0,0-0.08-0.27-0.34-0.63 c-0.33-0.44-0.63-0.59-0.64-0.59c-0.58-0.27-0.86-0.95-0.62-1.54c0.25-0.59,0.89-0.88,1.49-0.66c0.15,0.06,0.94,0.39,1.67,1.38 c0.59,0.79,0.73,1.46,0.76,1.59c0.12,0.64-0.3,1.26-0.94,1.38C79.21,29.02,79.08,29.03,78.96,29.01z" fill="#F8910A"/>
  <path d="M63.43,21.95c-0.34,0-0.67-0.14-0.9-0.42l0,0c0,0-0.24-0.27-0.62-0.55 c-0.23-0.16-0.64-0.34-0.85-0.41c-0.62-0.21-0.95-0.88-0.74-1.49c0.21-0.62,0.87-0.95,1.49-0.74c0.09,0.03,0.89,0.31,1.49,0.73 c0.61,0.44,1,0.89,1.04,0.94c0.42,0.5,0.36,1.24-0.14,1.66C63.97,21.86,63.7,21.95,63.43,21.95z" fill="#F8910A"/>
  <path d="M57.32,25.83c-0.28,0-0.56-0.1-0.78-0.3c-0.49-0.43-0.53-1.17-0.1-1.66c0.05-0.06,0.52-0.59,1.2-1.1 c0.51-0.39,1.28-0.72,1.43-0.78c0.6-0.25,1.29,0.04,1.54,0.64c0.25,0.6-0.04,1.29-0.64,1.54c-0.26,0.11-0.7,0.32-0.91,0.48 c-0.49,0.37-0.85,0.78-0.86,0.78C57.97,25.7,57.65,25.83,57.32,25.83z" fill="#F8910A"/>
  <path d="M50.3,28.93c-0.06,0-0.11,0-0.17-0.01c-0.64-0.09-1.09-0.68-1-1.32c0.01-0.1,0.15-1,0.7-1.93 c0.47-0.79,1.14-1.34,1.22-1.41c0.51-0.41,1.25-0.32,1.66,0.18c0.41,0.51,0.33,1.25-0.18,1.66l0,0c-0.11,0.09-0.46,0.41-0.67,0.77 c-0.31,0.52-0.39,1.04-0.39,1.05C51.38,28.5,50.88,28.93,50.3,28.93z" fill="#F8910A"/>
</svg>

<svg viewBox="0 0 128 128" xmlns="http://www.w3.org/2000/svg">
  <defs/>
  <path d="M64.48,114.29 C104.68,114.29 125.61,94.95 124.59,69.64 C123.63,45.67 90,36.78 65.64,36.78 C41.28,36.78 6.9,43.41 4.18,70.41 C1.86,93.42 21.57,114.29 64.48,114.29 Z" fill="#D4D4D4"/>
  <path d="M63.52,108.69 C100.24,108.88 122.07,89.09 122.47,69.65 C123.05,42 92.12,34.85 63.32,34.08 C35.61,33.33 7.39,45.7 6.11,67.9 C4.95,88 24.85,108.48 63.52,108.69 Z" fill="#F6F6F7"/>
  <path d="M9.23,68.2 C9.44,86.52 32,104.33 65.39,104.33 C99.12,104.33 121.92,83.09 121.21,63.58 C120.53,44.75 103.92,41.32 103.92,41.32 C103.92,41.32 89.91,24.2 58.54,26.77 C22.93,29.68 19.84,47.32 19.84,47.32 C19.84,47.32 9.06,53.65 9.23,68.2 Z" fill="#F4B54C"/>
  <path d="M16.6,62.81 C15.24,63.94 13.87,86.45 45.95,94.89 C80.01,103.85 112.12,87.09 113.25,66.65 C114.38,46.21 81.2,47.37 81.2,47.37 C81.2,47.37 80.92,56.25 81.06,59.78 C81.2,63.31 68.56,67.11 58.22,67.25 C47.93,67.39 42.15,65.13 42.15,65.13 C42.15,65.13 51.36,79.66 67.95,79.23 C84.3,78.82 94.46,67.4 94.46,67.4 C94.46,67.4 93.51,86.85 66.72,86.85 C28.79,86.85 18.29,61.4 16.6,62.81 Z" fill="#FFE0B1"/>
  <path d="M54.08,28.77 L44.92,31.78 C44.92,31.78 43.13,33.01 43.13,35.58 C43.13,38.15 44.36,40.05 44.36,40.05 L50.39,83.49 C50.39,83.49 57.87,83.6 63.01,77.91 C68.15,72.22 69.04,67.97 69.04,67.97 L71.23,69.09 L70.44,72.6 C70.44,72.6 71.55,78.69 75.52,81.48 C78.74,83.75 81.47,83.49 81.47,83.49 C81.47,83.49 83.12,86.08 88.62,86.44 C93.86,86.78 96.97,84.5 96.97,84.5 C96.97,84.5 100.24,85.06 102.92,82.71 C105.6,80.37 105.24,77.8 105.24,77.8 C105.24,77.8 108.12,76.95 109.13,74.16 C110.13,71.37 109.65,68.25 109.65,68.25 C109.65,68.25 111.95,64.8 110.05,57.82 C108.3,51.36 102.68,49.45 102.68,49.45 L84.78,43.5 C84.78,43.5 86.12,41.38 86.57,39.7 C87.02,38.03 86.57,35.57 86.57,35.57 C86.57,35.57 87.61,33.75 87.23,31.76 C86.7,29 83.56,27.53 83.56,27.53 L54.08,28.77 Z" fill="#66361F"/>
  <path d="M51.62,20.73 C51.62,20.73 48.65,20.76 46.37,24.53 C43.93,28.56 44.92,31.79 44.92,31.79 C44.92,31.79 53.74,30.9 59.1,33.8 C64.46,36.7 69.37,43.51 69.37,43.51 C69.37,43.51 73.81,43.59 75.4,42.28 C77.97,40.16 78.97,36.92 80.2,36.36 C81.43,35.8 84.11,34.24 84.22,32.68 C84.33,31.12 84.89,27.27 83.55,24.31 C81.99,20.85 79.2,17.39 74.51,16.05 C71.01,15.05 68.7,16.05 68.7,16.05 C68.7,16.05 66.24,13.71 61.78,14.15 C57.87,14.54 56.09,16.94 56.09,16.94 C56.09,16.94 54.42,16.38 52.74,17.83 C51.36,19.01 51.62,20.73 51.62,20.73 Z" fill="#974F2F"/>
  <path d="M47.72,40.04 C47.72,40.04 44.33,36.85 36.99,38.9 C29.9,40.88 28.77,45.13 28.77,45.13 C28.77,45.13 24.87,45.79 22.92,51.11 C20.83,56.82 21.3,60.18 21.58,61.61 C22.14,64.4 23.5,66.3 23.5,66.3 C23.5,66.3 23.06,67.99 23.98,71.33 C25.1,75.4 27.57,77.48 30.45,79 C32.04,79.84 34.76,80.92 34.76,80.92 C34.76,80.92 38.46,83.36 41.34,84.4 C46.28,86.17 52.62,83.84 54.18,81.94 C55.74,80.04 56.27,78.64 56.27,78.64 C56.27,78.64 60.35,77.94 62.55,73.56 C65.22,68.25 63.96,65.09 64.29,64.3 C64.62,63.52 65.7,59.26 65.24,54.29 C64.7,48.25 59,42.61 54.01,40.89 C50.67,39.74 47.72,40.04 47.72,40.04 Z" fill="#974F2F"/>
  <path d="M82.26,78.85 C82.26,78.85 89.31,80.35 93.91,78.38 C98.84,76.27 100.83,73.63 102.56,69.55 C103.97,66.23 106.4,64.5 106.58,60.36 C107.02,50.12 102.65,49.42 102.65,49.42 C102.65,49.42 100.64,45.65 97.32,44.24 C94.26,42.94 90.99,43.94 90.99,43.94 C90.99,43.94 89.28,41.83 85.66,42.63 C82.87,43.25 82.14,45.34 82.14,45.34 C82.14,45.34 78.07,44.08 73.39,49.76 C69.67,54.28 70.98,57.8 70.98,57.8 C70.98,57.8 68.06,59.42 67.78,64.1 C67.5,68.85 70.33,71.12 70.33,71.12 C70.33,71.12 69.97,74.69 73.79,77.21 C77.62,79.73 82.26,78.85 82.26,78.85 Z" fill="#974F2F"/>
  <path d="M29.87,47.89 C29.87,47.89 25.97,47.73 24.36,55.02 C22.65,62.7 25.58,65.72 25.58,65.72 C25.58,65.72 25.14,69.67 28,73.32 C30.86,76.97 34.41,77.24 34.41,77.24 C34.41,77.24 37.1,81.6 44.17,81.03 C51.98,80.4 53.69,75.86 53.69,75.86 C53.69,75.86 56.98,73.61 59.24,69.47 C61.51,65.33 62.06,58.19 60,54.46 C58.15,51.13 56.41,49.91 56.41,49.91 C56.41,49.91 56.25,46.61 52.18,44.08 C49.15,42.2 46.7,43.19 46.7,43.19 C46.7,43.19 43.05,39.54 36.94,41.41 C30.87,43.27 29.87,47.89 29.87,47.89 Z" fill="#F8910A"/>
  <path d="M31.17,49.59 C31.17,49.59 27.82,49.6 26.42,55.42 C24.74,62.42 27.81,65.4 27.81,65.4 C27.81,65.4 27.43,69.11 29.4,71.67 C32.22,75.34 34.85,75.06 34.85,75.06 C34.85,75.06 37.61,79.36 43.81,78.73 C50.25,78.08 51.68,74.1 51.68,74.1 C51.68,74.1 58.85,70.56 58.95,62.28 C59.05,54 54.48,51.58 54.48,51.58 C54.48,51.58 53.77,47.63 51.11,46.05 C48.45,44.47 46.23,45.81 46.23,45.81 C46.23,45.81 42.88,42.11 37.96,43.19 C32.91,44.32 31.17,49.59 31.17,49.59 Z" fill="#9ACD66"/>
  <path d="M21.6,88.19 C21.6,89.05 26.72,90.65 27.56,90.65 C28.4,90.65 32.42,87.34 32.42,86.05 C32.42,84.75 26.85,84.11 25.74,84.11 C24.65,84.11 21.6,87.16 21.6,88.19 Z" fill="#699F1A"/>
  <path d="M70.73,83.14 C69.81,83.37 68.75,89.82 68.59,90.59 C68.27,92.21 69.3,93.12 70.53,92.21 C71.91,91.19 77.34,86.96 77.27,85.86 C77.22,84.76 72.55,82.68 70.73,83.14 Z" fill="#307B37"/>
  <path d="M79.42,86.12 C78.77,86.12 76.44,90.59 76.57,91.57 C76.7,92.54 79.49,95.85 80.2,95.78 C80.91,95.72 83.05,88.97 82.92,88.33 C82.79,87.67 80.26,86.12 79.42,86.12 Z" fill="#6F9923"/>
  <path d="M93.23,29.21 C92.52,28.82 88.82,32.06 88.69,32.97 C88.56,33.88 89.14,38.03 90.05,38.35 C90.96,38.67 95.04,34.98 95.17,34.07 C95.3,33.16 94.14,29.7 93.23,29.21 Z" fill="#6F9923"/>
  <path d="M39.74,59.63 C39.74,59.63 40.06,56.19 42.33,55.09 C44.6,53.99 46.87,54.77 46.87,54.77 C46.87,54.77 46.03,57.88 44.15,58.92 C42.27,59.96 39.74,59.63 39.74,59.63 Z" fill="#6F9923"/>
  <path d="M40.2,63.98 C38.69,65.25 38.64,68.71 38.64,68.71 C38.64,68.71 40.78,69.03 42.72,67.67 C44.66,66.31 45.18,63.07 45.18,63.07 C45.18,63.07 42.21,62.29 40.2,63.98 Z" fill="#6F9923"/>
  <path d="M36.89,50.62 C36.89,50.62 37.93,47.83 40.58,47.64 C43.24,47.45 44.66,50.04 44.66,50.04 C44.66,50.04 43.04,51.92 40.97,51.92 C38.45,51.92 36.89,50.62 36.89,50.62 Z" fill="#6F9923"/>
  <path d="M30.67,58.92 C30.67,58.92 28.79,59.89 28.85,61.9 C28.91,63.91 31.44,66.31 31.44,66.31 C31.44,66.31 32.35,63.39 32.22,61.77 C32.09,60.15 30.67,58.92 30.67,58.92 Z" fill="#6F9923"/>
  <path d="M35.53,65.08 C35.53,65.08 36.96,62.41 37.22,59.05 C37.48,55.68 36.25,53.41 36.25,53.41 C36.25,53.41 32.76,54.19 32.94,58.73 C33.07,61.97 35.53,65.08 35.53,65.08 Z" fill="#307B37"/>
  <path d="M49.01,49.58 C48.69,49.71 48.3,53.33 49.07,54.83 C50.04,56.71 52.76,57.88 52.76,57.88 C52.76,57.88 53.47,54.65 52.5,52.76 C51.22,50.23 49.01,49.58 49.01,49.58 Z" fill="#307B37"/>
  <path d="M51.86,58.85 C51.86,58.85 50.56,60.15 50.5,61.96 C50.44,64.03 52.77,66.95 52.77,66.95 C52.77,66.95 54.29,64.48 54.39,63 C54.59,60.09 51.86,58.85 51.86,58.85 Z" fill="#307B37"/>
  <path d="M36.57,73.67 C36.57,74.17 39.69,76.96 44.41,75.52 C48.43,74.29 47.98,69.36 47.98,69.36 C47.98,69.36 44.67,68.45 41.11,70.12 C37.64,71.74 36.57,73.67 36.57,73.67 Z" fill="#307B37"/>
  <path d="M74.48,59.51 L74.48,59.51 C73.83,59.51 73.31,58.99 73.31,58.34 C73.31,58.34 73.31,57.73 73.38,56.92 C73.44,56.17 73.42,55.72 73.51,55.23 C73.59,54.74 74.02,54.24 74.84,54.28 C75.55,54.32 75.88,54.86 75.84,55.38 C75.8,55.9 75.78,56.34 75.71,57.1 C75.65,57.79 75.65,58.31 75.65,58.33 C75.65,58.99 75.13,59.51 74.48,59.51 Z" fill="#F8910A"/>
  <path d="M77.78,54.01 C77.53,54.01 77.28,53.93 77.06,53.77 C76.53,53.37 76.42,52.63 76.81,52.1 C76.86,52.03 77.32,51.43 78.08,50.9 C78.75,50.43 79.51,50.11 79.59,50.07 C80.2,49.82 80.9,50.1 81.16,50.71 C81.42,51.32 81.13,52.02 80.52,52.28 C80.51,52.28 79.92,52.53 79.46,52.86 C79.02,53.17 78.74,53.53 78.74,53.53 C78.5,53.84 78.14,54.01 77.78,54.01 Z" fill="#F8910A"/>
  <path d="M85.39,49.36 C85.04,49.36 84.7,49.2 84.49,48.9 C84.14,48.41 84.25,47.72 84.74,47.36 C84.82,47.3 85.55,46.79 86.65,46.53 C87.69,46.28 88.35,46.33 88.47,46.34 C89.08,46.4 89.52,46.94 89.46,47.55 C89.4,48.16 88.85,48.61 88.25,48.54 L88.25,48.54 C88.24,48.54 87.83,48.52 87.16,48.68 C86.49,48.84 86.04,49.15 86.04,49.15 C85.83,49.3 85.61,49.36 85.39,49.36 Z" fill="#F8910A"/>
  <path d="M85.93,54.58 C85.57,54.58 85.21,54.42 84.98,54.12 C84.59,53.61 84.65,52.89 85.15,52.48 C85.27,52.38 85.67,52.09 86.64,51.7 C87.61,51.31 88.38,51.18 88.47,51.16 C89.12,51.05 89.74,51.49 89.85,52.15 C89.96,52.8 89.52,53.42 88.86,53.53 C88.86,53.53 88.26,53.64 87.53,53.93 C86.88,54.19 86.65,54.35 86.64,54.35 C86.43,54.5 86.18,54.58 85.93,54.58 Z" fill="#F8910A"/>
  <path d="M99.03,53.49 C98.6,53.49 98.19,53.26 97.97,52.86 L97.97,52.86 C97.97,52.86 97.82,52.6 97.48,52.26 C97.23,52.01 96.95,51.94 96.95,51.94 C96.32,51.78 95.92,51.14 96.06,50.51 C96.2,49.88 96.81,49.47 97.45,49.6 C97.61,49.63 98.43,49.83 99.18,50.57 C99.77,51.16 100.04,51.64 100.09,51.73 C100.4,52.31 100.18,53.04 99.6,53.35 C99.42,53.44 99.22,53.49 99.03,53.49 Z" fill="#F8910A"/>
  <path d="M72.81,67.29 C72.69,67.29 72.57,67.27 72.46,67.23 C71.88,67.03 71.56,66.4 71.76,65.82 C71.77,65.79 72.01,65.07 72.38,64.39 C72.72,63.76 73.12,63.13 73.12,63.13 C73.45,62.61 74.14,62.46 74.66,62.79 C75.18,63.12 75.33,63.81 75,64.33 C74.99,64.34 74.64,64.9 74.33,65.46 C74.06,65.96 73.87,66.52 73.87,66.53 C73.71,67 73.28,67.29 72.81,67.29 Z" fill="#F8910A"/>
  <path d="M74.97,74.09 C74.47,74.09 74,73.77 73.84,73.27 C73.82,73.2 73.61,72.57 73.55,71.63 C73.48,70.68 73.61,69.98 73.63,69.9 C73.76,69.25 74.4,68.83 75.04,68.96 C75.69,69.09 76.11,69.72 75.98,70.37 C75.98,70.38 75.9,70.84 75.94,71.46 C75.98,72.1 76.12,72.52 76.12,72.52 C76.32,73.15 75.98,73.82 75.35,74.03 C75.22,74.07 75.09,74.09 74.97,74.09 Z" fill="#F8910A"/>
  <path d="M70.11,24.25 C69.89,24.25 69.66,24.19 69.46,24.05 C68.92,23.69 68.77,22.96 69.13,22.41 C69.29,22.16 70.13,21.32 71.03,20.89 C71.87,20.49 72.84,20.32 72.95,20.3 C73.59,20.19 74.2,20.63 74.3,21.28 C74.4,21.92 73.97,22.53 73.32,22.63 C73.12,22.66 72.5,22.8 72.05,23.01 C71.63,23.21 71.16,23.65 71.04,23.78 C70.82,24.09 70.47,24.25 70.11,24.25 Z" fill="#F8910A"/>
  <path d="M78.96,29.01 C78.47,28.95 78.05,28.57 77.95,28.06 C77.95,28.06 77.95,28.06 77.95,28.06 C77.95,28.06 77.87,27.79 77.61,27.43 C77.28,26.99 76.98,26.84 76.97,26.84 C76.39,26.57 76.11,25.89 76.35,25.3 C76.6,24.71 77.24,24.42 77.84,24.64 C77.99,24.7 78.78,25.03 79.51,26.02 C80.1,26.81 80.24,27.48 80.27,27.61 C80.39,28.25 79.97,28.87 79.33,28.99 C79.21,29.02 79.08,29.03 78.96,29.01 Z" fill="#F8910A"/>
  <path d="M63.43,21.95 C63.09,21.95 62.76,21.81 62.53,21.53 L62.53,21.53 C62.53,21.53 62.29,21.26 61.91,20.98 C61.68,20.82 61.27,20.64 61.06,20.57 C60.44,20.36 60.11,19.69 60.32,19.08 C60.53,18.46 61.19,18.13 61.81,18.34 C61.9,18.37 62.7,18.65 63.3,19.07 C63.91,19.51 64.3,19.96 64.34,20.01 C64.76,20.51 64.7,21.25 64.2,21.67 C63.97,21.86 63.7,21.95 63.43,21.95 Z" fill="#F8910A"/>
  <path d="M57.32,25.83 C57.04,25.83 56.76,25.73 56.54,25.53 C56.05,25.1 56.01,24.36 56.44,23.87 C56.49,23.81 56.96,23.28 57.64,22.77 C58.15,22.38 58.92,22.05 59.07,21.99 C59.67,21.74 60.36,22.03 60.61,22.63 C60.86,23.23 60.57,23.92 59.97,24.17 C59.71,24.28 59.27,24.49 59.06,24.65 C58.57,25.02 58.21,25.43 58.2,25.43 C57.97,25.7 57.65,25.83 57.32,25.83 Z" fill="#F8910A"/>
  <path d="M50.3,28.93 C50.24,28.93 50.19,28.93 50.13,28.92 C49.49,28.83 49.04,28.24 49.13,27.6 C49.14,27.5 49.28,26.6 49.83,25.67 C50.3,24.88 50.97,24.33 51.05,24.26 C51.56,23.85 52.3,23.94 52.71,24.44 C53.12,24.95 53.04,25.69 52.53,26.1 L52.53,26.1 C52.42,26.19 52.07,26.51 51.86,26.87 C51.55,27.39 51.47,27.91 51.47,27.92 C51.38,28.5 50.88,28.93 50.3,28.93 Z" fill="#F8910A"/>
</svg>
